assets/svg/icons/box.svg

<svg width="49" height="49" viewBox="0 0 49 49" fill="none" xmlns="http://www.w3.org/2000/svg">
    <path fill-rule="evenodd" clip-rule="evenodd" d="M0.0693359 12.357L41.9407 0.239502L44.1606 7.96484L26.541 13.0639H47.0679C47.621 13.0639 48.0693 13.5139 48.0693 14.0689V47.2345C48.0693 47.7895 47.621 48.2395 47.0679 48.2395H7.00982C6.45673 48.2395 6.00837 47.7895 6.00837 47.2345V19.006L2.2892 20.0823L0.0693359 12.357ZM20.5294 40.1995C20.5294 40.7545 20.9778 41.2045 21.5309 41.2045H32.5468C33.0999 41.2045 33.5483 40.7545 33.5483 40.1995V39.1588C33.5483 38.6038 33.0999 38.1538 32.5468 38.1538H30.0828C29.5297 38.1538 29.0813 37.7038 29.0813 37.1488V22.1092C29.0813 21.5541 28.633 21.1042 28.0799 21.1042H26.6475C26.4707 21.1042 26.2971 21.1511 26.1443 21.2402L21.4979 23.9498C21.1894 24.1297 20.9996 24.4607 20.9996 24.8188V25.9796C20.9996 26.7529 21.8335 27.2365 22.5011 26.8503L25.2903 25.2372V37.1488C25.2903 37.7038 24.8419 38.1538 24.2888 38.1538H21.5309C20.9778 38.1538 20.5294 38.6038 20.5294 39.1588V40.1995Z" fill="url(#paint0_radial_1718_46479)"/>
    <defs>
    <radialGradient id="paint0_radial_1718_46479" cx="0" cy="0" r="1" gradientUnits="userSpaceOnUse" gradientTransform="translate(4.45395 6.29464) rotate(42.7811) scale(59.0382 49.9189)">
    <stop stop-color="#1F2348" stop-opacity="0.1"/>
    <stop offset="1" stop-color="#1F2348" stop-opacity="0.4"/>
    </radialGradient>
    </defs>
    </svg>

<svg xmlns="http://www.w3.org/2000/svg" width="49" height="49" fill="none" viewBox="0 0 49 49">
  <path fill="url(#a)" fill-rule="evenodd" d="M.07 12.357 41.94.24l2.22 7.725-17.619 5.099h20.527c.553 0 1.001.45 1.001 1.005v33.165c0 .555-.448 1.005-1.001 1.005H7.01c-.553 0-1.002-.45-1.002-1.005V19.006L2.29 20.082.07 12.357ZM20.53 40.2c0 .554.448 1.005 1 1.005h11.017c.553 0 1.001-.45 1.001-1.005v-1.041c0-.555-.448-1.005-1.001-1.005h-2.464c-.553 0-1.002-.45-1.002-1.005v-15.04c0-.555-.448-1.005-1.001-1.005h-1.432a.999.999 0 0 0-.504.136l-4.646 2.71c-.309.18-.498.51-.498.869v1.16a1 1 0 0 0 1.501.871l2.79-1.613V37.15c0 .555-.45 1.005-1.002 1.005H21.53c-.553 0-1.002.45-1.002 1.005v1.04Z" clip-rule="evenodd"/>
  <defs>
    <radialGradient id="a" cx="0" cy="0" r="1" gradientTransform="matrix(43.33132 40.0987 -33.90488 36.63817 4.454 6.295)" gradientUnits="userSpaceOnUse">
      <stop stop-color="#1F2348" stop-opacity=".1"/>
      <stop offset="1" stop-color="#1F2348" stop-opacity=".4"/>
    </radialGradient>
  </defs>
</svg>
